X: 53
T:-Slip Jig
M:9/8
L:1/8
Q:120
K:C
edc B2A G2 E|E2e e2d efg|
edc B2A G2 A|Bdd d2 B def|
e2f gfe fed|Bee e2d edB|
e2f gfe fed|BAB d2B def|
e2f gfe fed|Bee e2d efg|
agf gfe fed|BAB d2B def|
